symbols/web/app_shortcut/materialsymbolsoutlined/app_shortcut_wght300grad200_24px.svg

<svg xmlns="http://www.w3.org/2000/svg" height="24" width="24"><path d="m21 11.1-.65-1.45L18.9 9l1.45-.65L21 6.9l.65 1.45L23.1 9l-1.45.65Zm-5 5.1-1.325-2.875L11.8 12l2.875-1.325L16 7.8l1.325 2.875L20.2 12l-2.875 1.325Zm5 .9-.65-1.45L18.9 15l1.45-.65.65-1.45.65 1.45 1.45.65-1.45.65ZM7.2 23.35q-1.05 0-1.75-.7t-.7-1.75V3.1q0-1.05.7-1.75T7.2.65h9.6q1.05 0 1.75.7t.7 1.75v3.55H17.1v-.7H6.9v12.1h10.2v-.7h2.15v3.55q0 1.05-.7 1.75t-1.75.7Zm-.3-3.15v.7q0 .1.1.2t.2.1h9.6q.1 0 .2-.1t.1-.2v-.7Zm0-16.4h10.2v-.7q0-.1-.1-.2t-.2-.1H7.2q-.1 0-.2.1t-.1.2Zm0-1v1V2.8Zm0 18.4v-1V21.2Z"/></svg>

<svg xmlns="http://www.w3.org/2000/svg" height="24" width="24"><path d="M21 11.1 20.35 9.65 18.9 9 20.35 8.35 21 6.9 21.65 8.35 23.1 9 21.65 9.65ZM16 16.2 14.675 13.325 11.8 12 14.675 10.675 16 7.8 17.325 10.675 20.2 12 17.325 13.325ZM21 17.1 20.35 15.65 18.9 15 20.35 14.35 21 12.9 21.65 14.35 23.1 15 21.65 15.65ZM7.2 23.35Q6.15 23.35 5.45 22.65Q4.75 21.95 4.75 20.9V3.1Q4.75 2.05 5.45 1.35Q6.15 0.65 7.2 0.65H16.8Q17.85 0.65 18.55 1.35Q19.25 2.05 19.25 3.1V6.65H17.1V5.95H6.9V18.05H17.1V17.35H19.25V20.9Q19.25 21.95 18.55 22.65Q17.85 23.35 16.8 23.35ZM6.9 20.2V20.9Q6.9 21 7 21.1Q7.1 21.2 7.2 21.2H16.8Q16.9 21.2 17 21.1Q17.1 21 17.1 20.9V20.2ZM6.9 3.8H17.1V3.1Q17.1 3 17 2.9Q16.9 2.8 16.8 2.8H7.2Q7.1 2.8 7 2.9Q6.9 3 6.9 3.1ZM6.9 2.8Q6.9 2.8 6.9 2.887Q6.9 2.975 6.9 3.1V3.8V3.1Q6.9 2.975 6.9 2.887Q6.9 2.8 6.9 2.8ZM6.9 21.2Q6.9 21.2 6.9 21.112Q6.9 21.025 6.9 20.9V20.2V20.9Q6.9 21.025 6.9 21.112Q6.9 21.2 6.9 21.2Z"/></svg>
